lib/flags/m/500.svg

<svg xmlns="http://www.w3.org/2000/svg" fill="none" viewBox="0 0 20 15"><mask id="500_svg__a" width="20" height="15" x="0" y="0" mask-type="alpha" maskUnits="userSpaceOnUse"><path fill="#fff" d="M0 0H20V15H0z"/></mask><g mask="url(#500_svg__a)"><path fill="#2E42A5" fill-rule="evenodd" d="M0 0V15H20V0H0Z" clip-rule="evenodd"/><mask id="500_svg__b" width="20" height="15" x="0" y="0" mask-type="alpha" maskUnits="userSpaceOnUse"><path fill="#fff" fill-rule="evenodd" d="M0 0V15H20V0H0Z" clip-rule="evenodd"/></mask><g mask="url(#500_svg__b)"><path fill="#2E42A5" d="M0 0H11V9H0z"/><mask id="500_svg__c" width="11" height="9" x="0" y="0" mask-type="alpha" maskUnits="userSpaceOnUse"><path fill="#fff" d="M0 0H11V9H0z"/></mask><g mask="url(#500_svg__c)"><path fill="#F7FCFF" d="M-1.25269 8.12482L1.22291 9.21057L11.3062 1.1804L12.612 -0.43306L9.96468 -0.795949L5.85197 2.66448L2.54165 4.996L-1.25269 8.12482Z"/><path fill="#F50100" d="M-0.913757 8.88555L0.347444 9.51562L12.1431 -0.582947H10.3722L-0.913757 8.88555Z"/><path fill="#F7FCFF" d="M12.5026 8.12493L10.3055 9.52063L-0.0562172 1.1805L-1.36204 -0.432954L1.28526 -0.795844L5.39797 2.66459L8.70828 4.99611L12.5026 8.12493Z"/><path fill="#F50100" d="M12.4182 8.67082L11.157 9.3009L6.13425 4.97718L4.64512 4.4941L-1.48769 -0.427482H0.283185L6.41255 4.37728L8.04064 4.95655L12.4182 8.67082Z"/><mask id="500_svg__d" width="13" height="11" x="-1" y="-1" fill="#000" maskUnits="userSpaceOnUse"><path fill="#fff" d="M-1-1H12V10H-1z"/><path fill-rule="evenodd" d="M6 0H5V4H0V5H5V9H6V5H11V4H6V0Z" clip-rule="evenodd"/></mask><path fill="#F50100" fill-rule="evenodd" d="M6 0H5V4H0V5H5V9H6V5H11V4H6V0Z" clip-rule="evenodd"/><path fill="#F7FCFF" d="M5 0V-0.9375H4.0625V0H5ZM6 0H6.9375V-0.9375H6V0ZM5 4V4.9375H5.9375V4H5ZM0 4V3.0625H-0.9375V4H0ZM0 5H-0.9375V5.9375H0V5ZM5 5H5.9375V4.0625H5V5ZM5 9H4.0625V9.9375H5V9ZM6 9V9.9375H6.9375V9H6ZM6 5V4.0625H5.0625V5H6ZM11 5V5.9375H11.9375V5H11ZM11 4H11.9375V3.0625H11V4ZM6 4H5.0625V4.9375H6V4ZM5 0.9375H6V-0.9375H5V0.9375ZM5.9375 4V0H4.0625V4H5.9375ZM0 4.9375H5V3.0625H0V4.9375ZM0.9375 5V4H-0.9375V5H0.9375ZM5 4.0625H0V5.9375H5V4.0625ZM5.9375 9V5H4.0625V9H5.9375ZM6 8.0625H5V9.9375H6V8.0625ZM5.0625 5V9H6.9375V5H5.0625ZM11 4.0625H6V5.9375H11V4.0625ZM10.0625 4V5H11.9375V4H10.0625ZM6 4.9375H11V3.0625H6V4.9375ZM5.0625 0V4H6.9375V0H5.0625Z" mask="url(#500_svg__d)"/></g><path fill="#6DC2FF" stroke="#F7FCFF" stroke-width=".5" d="M16.2054 13.4774C15.4097 13.4774 14.8638 13.2965 14.4789 12.9886C14.0929 12.6799 13.8368 12.2179 13.6718 11.5927C13.5062 10.9654 13.4377 10.1946 13.4122 9.29323C13.3942 8.65991 13.3976 7.97322 13.4011 7.23544C13.4023 7.00217 13.4034 6.7638 13.4039 6.52039H19.0812C19.1819 8.3084 19.2132 10.0353 18.853 11.3301C18.6664 12.001 18.3802 12.5336 17.9638 12.8986C17.5518 13.2598 16.9888 13.4774 16.2054 13.4774Z"/><mask id="500_svg__e" width="7" height="8" x="13" y="6" mask-type="alpha" maskUnits="userSpaceOnUse"><path fill="#fff" stroke="#fff" stroke-width=".5" d="M16.2054 13.4774C15.4097 13.4774 14.8638 13.2965 14.4789 12.9886C14.0929 12.6799 13.8368 12.2179 13.6718 11.5927C13.5062 10.9654 13.4377 10.1946 13.4122 9.29323C13.3942 8.65991 13.3976 7.97322 13.4011 7.23544C13.4023 7.00217 13.4034 6.7638 13.4039 6.52039H19.0812C19.1819 8.3084 19.2132 10.0353 18.853 11.3301C18.6664 12.001 18.3802 12.5336 17.9638 12.8986C17.5518 13.2598 16.9888 13.4774 16.2054 13.4774Z"/></mask><g mask="url(#500_svg__e)"><path fill="#2EBED7" d="M13.083 6.25H19.377V11.236H13.083z"/><path fill="#A95601" d="M13 11.196H19.625V13.75H13z"/><path stroke="#FFC6B5" stroke-width=".625" d="M16.7161 8.4149C16.7161 8.4149 15.5492 8.67958 15.662 8.4149C15.7749 8.15022 16.0767 7.1958 16.0767 7.1958"/><path fill="#FFC6B5" fill-rule="evenodd" d="M17.0671 8.60363C17.0671 8.60363 16.8542 8.47318 16.8542 8.23559C16.8542 7.99801 16.3351 7.90912 16.7011 7.53792C17.0671 7.16671 17.2251 7.33019 17.2251 7.53792C17.2251 7.74565 17.5193 8.23559 17.5193 8.23559L17.0671 8.60363Z" clip-rule="evenodd"/><path fill="#272727" fill-rule="evenodd" d="M16.4782 6.45276H15.8985V7.02033H14.7391V7.58789H15.8985V12.5338H16.4782V7.58789H17.6376V7.02033H16.4782V6.45276Z" clip-rule="evenodd"/><path fill="#0C7C38" fill-rule="evenodd" d="M17.7263 12.7008C17.7263 12.7008 17.5155 11.7248 17.5155 11.0568C17.5155 10.3887 17.1621 9.91087 17.263 9.55758C17.364 9.20429 17.6072 8.81363 17.4856 8.57182C17.364 8.33001 17.6042 8.21226 17.263 8.33001C16.9219 8.44775 16.8301 8.21226 16.5007 8.33001C16.1713 8.44775 16.1296 9.00362 16.1296 9.1622C16.1296 9.32078 16.2761 10.39 16.2761 10.7234C16.2761 11.0568 16.1554 13.1069 16.5007 13.1069C16.8461 13.1069 17.2226 12.5734 17.3541 12.5734C17.4856 12.5734 17.7263 12.7008 17.7263 12.7008Z" clip-rule="evenodd"/><path stroke="#FF9A06" stroke-width=".625" d="M15.6437 10.0884C15.4332 10.0884 15.6268 10.5774 15.0911 10.7918C14.5555 11.0062 14.4503 11.3081 14.6191 11.3081C14.7878 11.3081 16.122 12.8072 16.122 12.8072L16.4492 12.3014V10.7042C16.4492 10.7042 15.8542 10.0884 15.6437 10.0884Z" clip-rule="evenodd"/><path stroke="#979797" stroke-width=".625" d="M17.2145 12.5986C17.2145 12.5986 17.4645 13.1351 17.2145 13.1351"/><path stroke="#FFC6B5" stroke-width=".625" d="M17.1341 8.61902C17.1341 8.61902 17.0243 9.2208 16.8152 9.34679C16.606 9.47277 15.747 9.71667 15.747 9.92493C15.747 10.1332 15.6617 10.2076 15.6617 10.2076"/><path fill="#FF9A06" fill-rule="evenodd" d="M16.7175 7.37659C16.7175 7.37659 16.9277 7.6264 17.0454 8.0382C17.1631 8.45 17.504 8.59025 17.504 8.39752C17.504 8.20478 17.7561 7.37659 17.504 7.37659C17.252 7.37659 16.7175 7.37659 16.7175 7.37659Z" clip-rule="evenodd"/></g></g></g></svg>

<svg xmlns="http://www.w3.org/2000/svg" fill="none" viewBox="0 0 20 15"><mask id="500_svg__a" width="20" height="15" x="0" y="0" maskUnits="userSpaceOnUse"><path fill="#fff" d="M0 0h20v15H0z"/></mask><g mask="url(#500_svg__a)"><path fill="#2E42A5" fill-rule="evenodd" d="M0 0v15h20V0H0z" clip-rule="evenodd"/><mask id="500_svg__b" width="20" height="15" x="0" y="0" maskUnits="userSpaceOnUse"><path fill="#fff" fill-rule="evenodd" d="M0 0v15h20V0H0z" clip-rule="evenodd"/></mask><g mask="url(#500_svg__b)"><path fill="#2E42A5" d="M0 0h11v9H0z"/><mask id="500_svg__c" width="11" height="9" x="0" y="0" maskUnits="userSpaceOnUse"><path fill="#fff" d="M0 0h11v9H0z"/></mask><g mask="url(#500_svg__c)"><path fill="#F7FCFF" d="M-1.253 8.125L1.223 9.21l10.083-8.03 1.306-1.614-2.647-.363-4.113 3.46-3.31 2.332-3.795 3.129z"/><path fill="#F50100" d="M-.914 8.886l1.261.63L12.143-.583h-1.77L-.915 8.886z"/><path fill="#F7FCFF" d="M12.503 8.125L10.306 9.52-.056 1.18-1.362-.434l2.647-.363 4.113 3.46 3.31 2.332 3.795 3.129z"/><path fill="#F50100" d="M12.418 8.67l-1.261.63-5.023-4.323-1.489-.483-6.133-4.921H.283l6.13 4.804 1.628.58 4.377 3.714z"/><mask id="500_svg__d" width="13" height="11" x="-1" y="-1" fill="#000" maskUnits="userSpaceOnUse"><path fill="#fff" d="M-1-1h13v11H-1z"/><path fill-rule="evenodd" d="M6 0H5v4H0v1h5v4h1V5h5V4H6V0z" clip-rule="evenodd"/></mask><path fill="#F50100" fill-rule="evenodd" d="M6 0H5v4H0v1h5v4h1V5h5V4H6V0z" clip-rule="evenodd"/><path fill="#F7FCFF" d="M5 0v-.938h-.938V0H5zm1 0h.938v-.938H6V0zM5 4v.938h.938V4H5zM0 4v-.938h-.938V4H0zm0 1h-.938v.938H0V5zm5 0h.938v-.938H5V5zm0 4h-.938v.938H5V9zm1 0v.938h.938V9H6zm0-4v-.938h-.938V5H6zm5 0v.938h.938V5H11zm0-1h.938v-.938H11V4zM6 4h-.938v.938H6V4zM5 .937h1V-.938H5V.938zM5.938 4V0H4.063v4h1.875zM0 4.938h5V3.063H0v1.874zM.938 5V4H-.938v1H.938zM5 4.062H0v1.875h5V4.063zM5.938 9V5H4.063v4h1.875zM6 8.062H5v1.876h1V8.062zM5.062 5v4h1.875V5H5.063zM11 4.062H6v1.875h5V4.063zM10.062 4v1h1.876V4h-1.876zM6 4.938h5V3.063H6v1.874zM5.062 0v4h1.875V0H5.063z" mask="url(#500_svg__d)"/></g><path fill="#6DC2FF" stroke="#F7FCFF" stroke-width=".5" d="M16.205 13.477c-.795 0-1.341-.18-1.726-.488-.386-.31-.642-.771-.807-1.396-.166-.628-.234-1.398-.26-2.3-.018-.633-.014-1.32-.01-2.058l.002-.715h5.677c.1 1.788.132 3.515-.228 4.81-.187.671-.473 1.204-.89 1.569-.411.36-.974.579-1.758.579z"/><mask id="500_svg__e" width="7" height="8" x="13" y="6" maskUnits="userSpaceOnUse"><path fill="#fff" stroke="#fff" stroke-width=".5" d="M16.205 13.477c-.795 0-1.341-.18-1.726-.488-.386-.31-.642-.771-.807-1.396-.166-.628-.234-1.398-.26-2.3-.018-.633-.014-1.32-.01-2.058l.002-.715h5.677c.1 1.788.132 3.515-.228 4.81-.187.671-.473 1.204-.89 1.569-.411.36-.974.579-1.758.579z"/></mask><g mask="url(#500_svg__e)"><path fill="#2EBED7" d="M13.083 6.25h6.294v4.986h-6.294z"/><path fill="#A95601" d="M13 11.196h6.625v2.554H13z"/><path stroke="#FFC6B5" stroke-width=".625" d="M16.716 8.415s-1.167.265-1.054 0c.113-.265.415-1.22.415-1.22"/><path fill="#FFC6B5" fill-rule="evenodd" d="M17.067 8.604s-.213-.13-.213-.368-.519-.327-.153-.698c.366-.371.524-.208.524 0s.294.698.294.698l-.452.368z" clip-rule="evenodd"/><path fill="#272727" fill-rule="evenodd" d="M16.478 6.453h-.58v.567H14.74v.568h1.16v4.946h.58V7.588h1.159V7.02h-1.16v-.567z" clip-rule="evenodd"/><path fill="#0C7C38" fill-rule="evenodd" d="M17.726 12.7s-.21-.975-.21-1.643-.354-1.146-.253-1.5c.101-.353.344-.743.223-.985-.122-.242.118-.36-.223-.242-.341.118-.433-.118-.762 0-.33.118-.371.674-.371.832 0 .159.146 1.228.146 1.561 0 .334-.12 2.384.225 2.384s.722-.534.853-.534c.132 0 .372.128.372.128z" clip-rule="evenodd"/><path stroke="#FF9A06" stroke-width=".625" d="M15.644 10.088c-.21 0-.017.49-.553.704-.536.214-.64.516-.472.516.169 0 1.503 1.5 1.503 1.5l.327-.507v-1.597s-.595-.616-.805-.616z" clip-rule="evenodd"/><path stroke="#979797" stroke-width=".625" d="M17.215 12.599s.25.536 0 .536"/><path stroke="#FFC6B5" stroke-width=".625" d="M17.134 8.619s-.11.602-.319.728c-.209.126-1.068.37-1.068.578 0 .208-.085.282-.085.282"/><path fill="#FF9A06" fill-rule="evenodd" d="M16.717 7.377s.21.25.328.661c.118.412.459.552.459.36 0-.193.252-1.021 0-1.021h-.787z" clip-rule="evenodd"/></g></g></g></svg>
